(Face 4x4 stock)
(T1  D6*18*50L*3T - 6mm 3-Flute Carbide DLC End Mill  B09S3PJFKB  D=6. CR=0. - ZMIN=-0.1 - flat end mill)
G90 G94
G17
G21
(Face1)
M6 T1
M851 S100
S13000 M3
G54
M7
G0 X68.9 Y-63.762
Z15.
G1 Z5. F1000.
Z0.5 F350.
G18 G3 X68.3 Z-0.1 I-0.6 K0. F1000.
G1 X68.01
X-68.01
G17 G2 X-68.01 Y-59.567 I0. J2.098
G1 X68.01
G3 X68.01 Y-55.371 I0. J2.098
G1 X-68.01
G2 X-68.01 Y-51.175 I0. J2.098
G1 X68.01
G3 X68.01 Y-46.98 I0. J2.098
G1 X-68.01
G2 X-68.01 Y-42.784 I0. J2.098
G1 X68.01
G3 X68.01 Y-38.588 I0. J2.098
G1 X-68.01
G2 X-68.01 Y-34.393 I0. J2.098
G1 X68.01
G3 X68.01 Y-30.197 I0. J2.098
G1 X-68.01
G2 X-68.01 Y-26.001 I0. J2.098
G1 X68.01
G3 X68.01 Y-21.806 I0. J2.098
G1 X-68.01
G2 X-68.01 Y-17.61 I0. J2.098
G1 X68.01
G3 X68.01 Y-13.414 I0. J2.098
G1 X-68.01
G2 X-68.01 Y-9.219 I0. J2.098
G1 X68.01
G3 X68.01 Y-5.023 I0. J2.098
G1 X-68.01
G2 X-68.01 Y-0.827 I0. J2.098
G1 X68.01
G3 X68.01 Y3.369 I0. J2.098
G1 X-68.01
G2 X-68.01 Y7.564 I0. J2.098
G1 X68.01
G3 X68.01 Y11.76 I0. J2.098
G1 X-68.01
G2 X-68.01 Y15.956 I0. J2.098
G1 X68.01
G3 X68.01 Y20.151 I0. J2.098
G1 X-68.01
G2 X-68.01 Y24.347 I0. J2.098
G1 X68.01
G3 X68.01 Y28.543 I0. J2.098
G1 X-68.01
G2 X-68.01 Y32.738 I0. J2.098
G1 X68.01
G3 X68.01 Y36.934 I0. J2.098
G1 X-68.01
G2 X-68.01 Y41.13 I0. J2.098
G1 X68.01
G3 X68.01 Y45.325 I0. J2.098
G1 X-68.01
G2 X-68.01 Y49.521 I0. J2.098
G1 X68.01
G3 X68.01 Y53.717 I0. J2.098
G1 X-68.01
G2 X-68.01 Y57.912 I0. J2.098
G1 X68.01
G3 X68.01 Y62.108 I0. J2.098
G1 X-68.01
G18 G3 X-68.61 Z0.5 I0. K0.6
G1 Z15.
G17
M9
M5
M852
G28
M30
